packages/assets/static/images/icons/video.svg

<svg width="24" height="24" viewBox="0 0 24 24" xmlns="http://www.w3.org/2000/svg">
<path d="M15.4161 9.87562L10.9161 6.87562C10.8031 6.80025 10.6718 6.75696 10.5361 6.75039C10.4005 6.74382 10.2656 6.77421 10.1458 6.83831C10.0261 6.90241 9.92601 6.99782 9.85627 7.11436C9.78652 7.2309 9.74973 7.36419 9.74982 7.5V13.5C9.74973 13.6358 9.78652 13.7691 9.85627 13.8856C9.92601 14.0022 10.0261 14.0976 10.1458 14.1617C10.2656 14.2258 10.4005 14.2562 10.5361 14.2496C10.6718 14.243 10.8031 14.1998 10.9161 14.1244L15.4161 11.1244C15.5189 11.0559 15.6033 10.9631 15.6617 10.8542C15.72 10.7452 15.7505 10.6236 15.7505 10.5C15.7505 10.3764 15.72 10.2548 15.6617 10.1458C15.6033 10.0369 15.5189 9.94409 15.4161 9.87562ZM11.2498 12.0984V8.90625L13.6479 10.5L11.2498 12.0984ZM20.2498 3.75H3.74982C3.35199 3.75 2.97046 3.90804 2.68916 4.18934C2.40785 4.47064 2.24982 4.85218 2.24982 5.25V15.75C2.24982 16.1478 2.40785 16.5294 2.68916 16.8107C2.97046 17.092 3.35199 17.25 3.74982 17.25H20.2498C20.6476 17.25 21.0292 17.092 21.3105 16.8107C21.5918 16.5294 21.7498 16.1478 21.7498 15.75V5.25C21.7498 4.85218 21.5918 4.47064 21.3105 4.18934C21.0292 3.90804 20.6476 3.75 20.2498 3.75ZM20.2498 15.75H3.74982V5.25H20.2498V15.75ZM21.7498 19.5C21.7498 19.6989 21.6708 19.8897 21.5301 20.0303C21.3895 20.171 21.1987 20.25 20.9998 20.25H2.99982C2.8009 20.25 2.61014 20.171 2.46949 20.0303C2.32883 19.8897 2.24982 19.6989 2.24982 19.5C2.24982 19.3011 2.32883 19.1103 2.46949 18.9697C2.61014 18.829 2.8009 18.75 2.99982 18.75H20.9998C21.1987 18.75 21.3895 18.829 21.5301 18.9697C21.6708 19.1103 21.7498 19.3011 21.7498 19.5Z"/>
</svg>

<svg viewBox="0 0 24 24" xmlns="http://www.w3.org/2000/svg" aria-hidden="true" fill="currentColor"><path d="m15.416 9.876-4.5-3A.75.75 0 0 0 9.75 7.5v6a.75.75 0 0 0 1.166.624l4.5-3a.752.752 0 0 0 0-1.248m-4.166 2.222V8.906l2.398 1.594zm9-8.348H3.75a1.5 1.5 0 0 0-1.5 1.5v10.5a1.5 1.5 0 0 0 1.5 1.5h16.5a1.5 1.5 0 0 0 1.5-1.5V5.25a1.5 1.5 0 0 0-1.5-1.5m0 12H3.75V5.25h16.5zm1.5 3.75a.75.75 0 0 1-.75.75H3a.75.75 0 1 1 0-1.5h18a.75.75 0 0 1 .75.75"/></svg>
